assets/images/circle2.svg

<svg fill="none" height="132" viewBox="0 0 132 132" width="132" xmlns="http://www.w3.org/2000/svg"><g fill="#fff"><path d="m118.662 74.0435 3.721-.7289.793-4.458-3.242-1.9647.255-1.4335 10.509 6.4252-.227 1.2759-12.07 2.349zm5.056-.9277 3.626-.6486c.09-.0164.251-.0416.485-.0754.233-.0339.472-.0668.716-.0988.253-.0196.446-.0391.579-.0584-.31-.1426-.614-.2894-.912-.4405-.29-.1388-.518-.2557-.686-.3508l-3.174-1.8876z"/><path d="m116.175 85.9327 9.866 5.7603-.721 1.2468-8.76-5.1149-2.497 4.3223-1.106-.6454z"/><path d="m112.005 112.21c-1.135.971-2.151 1.455-3.049 1.451-.897-.003-1.691-.412-2.381-1.226-.406-.48-.68-1.026-.819-1.636-.141-.596-.067-1.242.223-1.939.282-.691.856-1.407 1.723-2.15l.997-.853-2.875-3.394 1.093-.936 7.385 8.716zm-.699-1.023 1.106-.947-2.917-3.443-.875.749c-.827.708-1.329 1.369-1.506 1.985-.178.615.006 1.244.55 1.887.476.562 1.014.825 1.613.79.591-.029 1.267-.369 2.029-1.021z"/><path d="m84.4074 116.536 1.353-.493 1.807 5.012 5.5023-2.004-1.8071-5.012 1.353-.493 3.8746 10.747-1.353.493-1.6388-4.546-5.5023 2.005 1.6389 4.545-1.353.493z"/><path d="m66.5127 119.866 1.3215 3.557 4.5275.07 1.4141-3.514 1.4558.022-4.6396 11.402-1.2959-.02-4.2712-11.54zm1.7338 4.844 1.2268 3.475c.0306.086.0816.241.1528.466.0712.226.1424.456.2134.692.0602.246.1107.434.1514.562.0904-.329.186-.653.287-.971.09-.308.1685-.553.2352-.733l1.349-3.435z"/><path d="m50.3588 129.983-3.0363-1.198c-1.3197-.521-2.2443-1.115-2.7738-1.782-.5295-.668-.6061-1.484-.2298-2.447.2443-.626.6216-1.08 1.1318-1.36.5064-.27 1.1103-.336 1.8117-.197l.0291-.074c-.4155-.256-.765-.549-1.0485-.878-.2934-.334-.4765-.716-.5491-1.146s-.0022-.918.2111-1.465c.3763-.963.9996-1.577 1.87-1.842.8605-.268 1.8613-.177 3.0024.273l3.7358 1.474zm.4293-5.06-1.9647-.775c-.9029-.356-1.5793-.457-2.0292-.302-.4637.162-.808.53-1.033 1.107-.2288.586-.1834 1.085.1364 1.498.306.419.9104.806 1.8134 1.163l1.7563.692zm.4364-1.118 1.507-3.86-2.1433-.845c-.9426-.372-1.6693-.447-2.1799-.224-.5107.223-.8824.632-1.1151 1.228-.2173.557-.1983 1.08.0568 1.571.2412.496.8531.938 1.8354 1.326z"/><path d="m25.593 109.563c.7977-.875 1.6438-1.502 2.5383-1.882.8796-.379 1.7749-.482 2.686-.31.9033.165 1.7746.634 2.6141 1.407.8708.803 1.4312 1.652 1.6812 2.55.2422.89.2062 1.792-.1078 2.707-.314.914-.8698 1.809-1.6675 2.684-.7833.859-1.6107 1.482-2.4824 1.868-.8789.394-1.77.509-2.6732.344-.9111-.172-1.806-.663-2.6847-1.473-.8395-.773-1.3803-1.605-1.6224-2.495-.2494-.882-.2209-1.784.0852-2.706.2912-.921.8356-1.819 1.6332-2.694zm6.6371 6.114c.9702-1.064 1.5119-2.109 1.6252-3.136.1062-1.019-.3154-1.966-1.2647-2.84-.9493-.875-1.9203-1.211-2.9129-1.009-1.0077.203-1.9966.837-2.9667 1.901s-1.5086 2.098-1.6154 3.102c-.114 1.012.3036 1.955 1.2529 2.829.9572.882 1.936 1.225 2.9365 1.03.9933-.187 1.975-.813 2.9451-1.877z"/><path d="m18.6496 91.0084.7319 1.4587-3.0679 4.9457 5.8015.503.6816 1.3586-7.0092-.6979-3.2877 5.6495-.7175-1.43 2.7402-4.5289-5.25864-.4912-.68162-1.3586 6.43776.7006z"/><path d="m8.96609 74.7696 1.11691-.1348.3928 3.2891 3.2809-.3959.1324 1.1093-3.2808.3959.3927 3.2892-1.11686.1347-.39279-3.2891-3.28864.3969-.13247-1.1093 3.28864-.3969z"/><path d="m13.683 55.462-3.75629.514-1.04579 4.4056 3.12438 2.148-.3363 1.4167-10.12455-7.0192.29933-1.261 12.18282-1.6518zm-5.10076.6358-3.6563.4393c-.09037.0112-.25308.027-.48815.0474s-.47532.0396-.72076.0575c-.25335.005-.44718.0134-.5815.025.30183.1602.59725.3243.88625.4923.28109.1552.50241.2851.66396.3896l3.06135 2.0671z"/><path d="m16.8758 43.6281-9.50915-6.3312.79228-1.2024 8.44367 5.6218 2.7466-4.1685 1.0654.7093z"/><path d="m22.4401 17.7294c1.1891-.9033 2.2317-1.327 3.1279-1.271.8961.056 1.6646.5103 2.3056 1.3629.3782.503.6192 1.0633.7232 1.6809.1061.6026-.0059 1.2435-.3359 1.9229-.3215.6729-.9367 1.3545-1.8455 2.0449l-1.0447.7937 2.6728 3.5553-1.1467.8711-6.8647-9.1314zm.6384 1.0622-1.1594.8808 2.7112 3.6065.9174-.6969c.8663-.6581 1.4061-1.2892 1.6193-1.8931.2131-.604.0665-1.2428-.4398-1.9164-.4423-.5883-.9635-.8822-1.5636-.8817-.5917-.006-1.2867.2943-2.0851.9008z"/><path d="m50.3352 14.9385-1.3804.4101-1.5029-5.1117-5.6135 1.6678 1.5029 5.1116-1.3804.4101-3.2224-10.96008 1.3804-.4101 1.363 4.63578 5.6135-1.66775-1.363-4.63578 1.3804-.41011z"/><path d="m68.3626 12.6401-1.1008-3.63213-4.5144-.35075-1.627 3.42028-1.4516-.1128 5.3302-11.092462 1.2921.100392 3.555 11.78277zm-1.4333-4.94183-1.0112-3.54498c-.0253-.08756-.0666-.2459-.1239-.47502-.0573-.22913-.1141-.46357-.1706-.70333-.045-.24957-.0838-.43982-.1166-.57075-.1104.32309-.2257.64044-.346.95206-.1088.30181-.202.54064-.2797.71648l-1.5572 3.34544z"/><path d="m84.8992 3.37443 2.9591 1.37751c1.2862.59872 2.1736 1.24715 2.6623 1.94529s.5166 1.51707.0837 2.45681c-.2812.61035-.6847 1.04016-1.2106 1.28956-.5215.2396-1.1281.269-1.8199.0882l-.0335.0726c.3995.2801.7309.5932.9942.9394.273.3506.4329.7427.4798 1.1763s-.0524.9169-.2979 1.4497c-.4329.9398-1.0916 1.5156-1.9761 1.7274-.8747.2164-1.8682.0657-2.9802-.452l-3.6409-1.6949zm-.7297 5.02548 1.9147.89133c.88.40965 1.5491.55053 2.0073.42263.4724-.13308.838-.48058 1.0969-1.04249.2633-.57159.2477-1.07302-.0469-1.50429-.2804-.43646-.8607-.85952-1.7407-1.26917l-1.7116-.79679zm-.5021 1.0899-1.7339 3.76379 2.0888.9724c.9186.4276 1.6394.5455 2.1624.3536.5229-.1919.9183-.5785 1.1861-1.1597.2499-.5426.2622-1.0663.0368-1.5713-.2113-.5101-.7956-.988-1.7529-1.4337z"/><path d="m108.759 25.4192c-.851.8241-1.734 1.398-2.65 1.7217-.901.324-1.801.372-2.7.1438-.891-.2204-1.732-.7424-2.522-1.566-.82-.8544-1.3268-1.7372-1.5209-2.6483-.1867-.9035-.0952-1.8019.2747-2.6952.3702-.8933.9802-1.752 1.8302-2.5761.835-.8092 1.699-1.3797 2.593-1.7114.901-.3391 1.798-.3984 2.689-.178.899.2281 1.762.7732 2.589 1.6353.79.8237 1.278 1.6872 1.465 2.5906.194.896.11 1.7946-.252 2.6956-.348.9013-.946 1.764-1.796 2.588zm-6.247-6.5121c-1.034 1.0023-1.64 2.0124-1.816 3.0302-.169 1.0104.193 1.9814 1.087 2.9128.893.9314 1.842 1.3268 2.845 1.1861 1.018-.1403 2.044-.7116 3.078-1.7139 1.034-1.0022 1.636-2.001 1.804-2.9963.176-1.0027-.182-1.9698-1.076-2.9012-.901-.9391-1.856-1.3422-2.867-1.2093-1.003.1255-2.022.6894-3.055 1.6916z"/><path d="m114.518 44.2144-.644-1.4995 3.357-4.7534-5.763-.8478-.6-1.3966 6.957 1.1143 3.617-5.4424.632 1.4701-3.005 4.3565 5.221.8036.6 1.3967-6.385-1.083z"/><path d="m123.278 61.2298-1.123.0654-.191-3.307-3.299.1922-.064-1.1154 3.299-.1921-.191-3.307 1.123-.0655.191 3.3071 3.307-.1927.064 1.1154-3.307.1926z"/></g></svg>

<svg width="132" height="132" viewBox="0 0 132 132" fill="none" xmlns="http://www.w3.org/2000/svg">
<path d="M118.662 74.0435L122.383 73.3146L123.176 68.8566L119.934 66.8919L120.189 65.4584L130.698 71.8836L130.471 73.1595L118.401 75.5085L118.662 74.0435ZM123.718 73.1158L127.344 72.4672C127.434 72.4508 127.595 72.4256 127.829 72.3918C128.062 72.3579 128.301 72.325 128.545 72.293C128.798 72.2734 128.991 72.2539 129.124 72.2346C128.814 72.092 128.51 71.9452 128.212 71.7941C127.922 71.6553 127.694 71.5384 127.526 71.4433L124.352 69.5557L123.718 73.1158Z" fill="white"/>
<path d="M116.175 85.9327L126.041 91.693L125.32 92.9398L116.56 87.8249L114.063 92.1472L112.957 91.5018L116.175 85.9327Z" fill="white"/>
<path d="M112.005 112.21C110.87 113.181 109.854 113.665 108.956 113.661C108.059 113.658 107.265 113.249 106.575 112.435C106.169 111.955 105.895 111.409 105.756 110.799C105.615 110.203 105.689 109.557 105.979 108.86C106.261 108.169 106.835 107.453 107.702 106.71L108.699 105.857L105.824 102.463L106.917 101.527L114.302 110.243L112.005 112.21ZM111.306 111.187L112.412 110.24L109.495 106.797L108.62 107.546C107.793 108.254 107.291 108.915 107.114 109.531C106.936 110.146 107.12 110.775 107.664 111.418C108.14 111.98 108.678 112.243 109.277 112.208C109.868 112.179 110.544 111.839 111.306 111.187Z" fill="white"/>
<path d="M84.4074 116.536L85.7604 116.043L87.5674 121.055L93.0697 119.051L91.2626 114.039L92.6156 113.546L96.4902 124.293L95.1372 124.786L93.4984 120.24L87.9961 122.245L89.635 126.79L88.282 127.283L84.4074 116.536Z" fill="white"/>
<path d="M66.5127 119.866L67.8342 123.423L72.3617 123.493L73.7758 119.979L75.2316 120.001L70.592 131.403L69.2961 131.383L65.0249 119.843L66.5127 119.866ZM68.2465 124.71L69.4733 128.185C69.5039 128.271 69.5549 128.426 69.6261 128.651C69.6973 128.877 69.7685 129.107 69.8395 129.343C69.8997 129.589 69.9502 129.777 69.9909 129.905C70.0813 129.576 70.1769 129.252 70.2779 128.934C70.3679 128.626 70.4464 128.381 70.5131 128.201L71.8621 124.766L68.2465 124.71Z" fill="white"/>
<path d="M50.3588 129.983L47.3225 128.785C46.0028 128.264 45.0782 127.67 44.5487 127.003C44.0192 126.335 43.9426 125.519 44.3189 124.556C44.5632 123.93 44.9405 123.476 45.4507 123.196C45.9571 122.926 46.561 122.86 47.2624 122.999L47.2915 122.925C46.876 122.669 46.5265 122.376 46.243 122.047C45.9496 121.713 45.7665 121.331 45.6939 120.901C45.6213 120.471 45.6917 119.983 45.905 119.436C46.2813 118.473 46.9046 117.859 47.775 117.594C48.6355 117.326 49.6363 117.417 50.7774 117.867L54.5132 119.341L50.3588 129.983ZM50.7881 124.923L48.8234 124.148C47.9205 123.792 47.2441 123.691 46.7942 123.846C46.3305 124.008 45.9862 124.376 45.7612 124.953C45.5324 125.539 45.5778 126.038 45.8976 126.451C46.2036 126.87 46.808 127.257 47.711 127.614L49.4673 128.306L50.7881 124.923ZM51.2245 123.805L52.7315 119.945L50.5882 119.1C49.6456 118.728 48.9189 118.653 48.4083 118.876C47.8976 119.099 47.5259 119.508 47.2932 120.104C47.0759 120.661 47.0949 121.184 47.35 121.675C47.5912 122.171 48.2031 122.613 49.1854 123.001L51.2245 123.805Z" fill="white"/>
<path d="M25.593 109.563C26.3907 108.688 27.2368 108.061 28.1313 107.681C29.0109 107.302 29.9062 107.199 30.8173 107.371C31.7206 107.536 32.5919 108.005 33.4314 108.778C34.3022 109.581 34.8626 110.43 35.1126 111.328C35.3548 112.218 35.3188 113.12 35.0048 114.035C34.6908 114.949 34.135 115.844 33.3373 116.719C32.554 117.578 31.7266 118.201 30.8549 118.587C29.976 118.981 29.0849 119.096 28.1817 118.931C27.2706 118.759 26.3757 118.268 25.497 117.458C24.6575 116.685 24.1167 115.853 23.8746 114.963C23.6252 114.081 23.6537 113.179 23.9598 112.257C24.251 111.336 24.7954 110.438 25.593 109.563ZM32.2301 115.677C33.2003 114.613 33.742 113.568 33.8553 112.541C33.9615 111.522 33.5399 110.575 32.5906 109.701C31.6413 108.826 30.6703 108.49 29.6777 108.692C28.67 108.895 27.6811 109.529 26.711 110.593C25.7409 111.657 25.2024 112.691 25.0956 113.695C24.9816 114.707 25.3992 115.65 26.3485 116.524C27.3057 117.406 28.2845 117.749 29.285 117.554C30.2783 117.367 31.26 116.741 32.2301 115.677Z" fill="white"/>
<path d="M18.6496 91.0084L19.3815 92.4671L16.3136 97.4128L22.1151 97.9158L22.7967 99.2744L15.7875 98.5765L12.4998 104.226L11.7823 102.796L14.5225 98.2671L9.26386 97.7759L8.58224 96.4173L15.02 97.1179L18.6496 91.0084Z" fill="white"/>
<path d="M8.96609 74.7696L10.083 74.6348L10.4758 77.9239L13.7567 77.528L13.8891 78.6373L10.6083 79.0332L11.001 82.3224L9.88414 82.4571L9.49135 79.168L6.20271 79.5649L6.07024 78.4556L9.35888 78.0587L8.96609 74.7696Z" fill="white"/>
<path d="M13.683 55.462L9.92671 55.976L8.88092 60.3816L12.0053 62.5296L11.669 63.9463L1.54445 56.9271L1.84378 55.6661L14.0266 54.0143L13.683 55.462ZM8.58224 56.0978L4.92594 56.5371C4.83557 56.5483 4.67286 56.5641 4.43779 56.5845C4.20272 56.6049 3.96247 56.6241 3.71703 56.642C3.46368 56.647 3.26985 56.6554 3.13553 56.667C3.43736 56.8272 3.73278 56.9913 4.02178 57.1593C4.30287 57.3145 4.52419 57.4444 4.68574 57.5489L7.74709 59.616L8.58224 56.0978Z" fill="white"/>
<path d="M16.8758 43.6281L7.36665 37.2969L8.15893 36.0945L16.6026 41.7163L19.3492 37.5478L20.4146 38.2571L16.8758 43.6281Z" fill="white"/>
<path d="M22.4401 17.7294C23.6292 16.8261 24.6718 16.4024 25.568 16.4584C26.4641 16.5144 27.2326 16.9687 27.8736 17.8213C28.2518 18.3243 28.4928 18.8846 28.5968 19.5022C28.7029 20.1048 28.5909 20.7457 28.2609 21.4251C27.9394 22.098 27.3242 22.7796 26.4154 23.47L25.3707 24.2637L28.0435 27.819L26.8968 28.6901L20.0321 19.5587L22.4401 17.7294ZM23.0785 18.7916L21.9191 19.6724L24.6303 23.2789L25.5477 22.582C26.414 21.9239 26.9538 21.2928 27.167 20.6889C27.3801 20.0849 27.2335 19.4461 26.7272 18.7725C26.2849 18.1842 25.7637 17.8903 25.1636 17.8908C24.5719 17.8848 23.8769 18.1851 23.0785 18.7916Z" fill="white"/>
<path d="M50.3352 14.9385L48.9548 15.3486L47.4519 10.2369L41.8384 11.9047L43.3413 17.0163L41.9609 17.4264L38.7385 6.46632L40.1189 6.05622L41.4819 10.692L47.0954 9.02425L45.7324 4.38847L47.1128 3.97836L50.3352 14.9385Z" fill="white"/>
<path d="M68.3626 12.6401L67.2618 9.00797L62.7474 8.65722L61.1204 12.0775L59.6688 11.9647L64.999 0.872238L66.2911 0.97263L69.8461 12.7554L68.3626 12.6401ZM66.9293 7.69827L65.9181 4.15329C65.8928 4.06573 65.8515 3.90739 65.7942 3.67827C65.7369 3.44914 65.6801 3.2147 65.6236 2.97494C65.5786 2.72537 65.5398 2.53512 65.507 2.40419C65.3966 2.72728 65.2813 3.04463 65.161 3.35625C65.0522 3.65806 64.959 3.89689 64.8813 4.07273L63.3241 7.41817L66.9293 7.69827Z" fill="white"/>
<path d="M84.8992 3.37443L87.8583 4.75194C89.1445 5.35066 90.0319 5.99909 90.5206 6.69723C91.0093 7.39537 91.0372 8.2143 90.6043 9.15404C90.3231 9.76439 89.9196 10.1942 89.3937 10.4436C88.8722 10.6832 88.2656 10.7126 87.5738 10.5318L87.5403 10.6044C87.9398 10.8845 88.2712 11.1976 88.5345 11.5438C88.8075 11.8944 88.9674 12.2865 89.0143 12.7201C89.0612 13.1537 88.9619 13.637 88.7164 14.1698C88.2835 15.1096 87.6248 15.6854 86.7403 15.8972C85.8656 16.1136 84.8721 15.9629 83.7601 15.4452L80.1192 13.7503L84.8992 3.37443ZM84.1695 8.39991L86.0842 9.29124C86.9642 9.70089 87.6333 9.84177 88.0915 9.71387C88.5639 9.58079 88.9295 9.23329 89.1884 8.67138C89.4517 8.09979 89.4361 7.59836 89.1415 7.16709C88.8611 6.73063 88.2808 6.30757 87.4008 5.89792L85.6892 5.10113L84.1695 8.39991ZM83.6674 9.48981L81.9335 13.2536L84.0223 14.226C84.9409 14.6536 85.6617 14.7715 86.1847 14.5796C86.7076 14.3877 87.103 14.0011 87.3708 13.4199C87.6207 12.8773 87.633 12.3536 87.4076 11.8486C87.1963 11.3385 86.612 10.8606 85.6547 10.4149L83.6674 9.48981Z" fill="white"/>
<path d="M108.759 25.4192C107.908 26.2433 107.025 26.8172 106.109 27.1409C105.208 27.4649 104.308 27.5129 103.409 27.2847C102.518 27.0643 101.677 26.5423 100.887 25.7187C100.067 24.8643 99.5602 23.9815 99.3661 23.0704C99.1794 22.1669 99.2709 21.2685 99.6408 20.3752C100.011 19.4819 100.621 18.6232 101.471 17.7991C102.306 16.9899 103.17 16.4194 104.064 16.0877C104.965 15.7486 105.862 15.6893 106.753 15.9097C107.652 16.1378 108.515 16.6829 109.342 17.545C110.132 18.3687 110.62 19.2322 110.807 20.1356C111.001 21.0316 110.917 21.9302 110.555 22.8312C110.207 23.7325 109.609 24.5952 108.759 25.4192ZM102.512 18.9071C101.478 19.9094 100.872 20.9195 100.696 21.9373C100.527 22.9477 100.889 23.9187 101.783 24.8501C102.676 25.7815 103.625 26.1769 104.628 26.0362C105.646 25.8959 106.672 25.3246 107.706 24.3223C108.74 23.3201 109.342 22.3213 109.51 21.326C109.686 20.3233 109.328 19.3562 108.434 18.4248C107.533 17.4857 106.578 17.0826 105.567 17.2155C104.564 17.341 103.545 17.9049 102.512 18.9071Z" fill="white"/>
<path d="M114.518 44.2144L113.874 42.7149L117.231 37.9615L111.468 37.1137L110.868 35.7171L117.825 36.8314L121.442 31.389L122.074 32.8591L119.069 37.2156L124.29 38.0192L124.89 39.4159L118.505 38.3329L114.518 44.2144Z" fill="white"/>
<path d="M123.278 61.2298L122.155 61.2952L121.964 57.9882L118.665 58.1804L118.601 57.065L121.9 56.8729L121.709 53.5659L122.832 53.5004L123.023 56.8075L126.33 56.6148L126.394 57.7302L123.087 57.9228L123.278 61.2298Z" fill="white"/>
</svg>
